X:5227
T:Portabelo
O:england
R:Hornpipe
A:North-West
N:Play in a pair with Brighams, X 86
M:4/4
K:G
(3DEF|\
G2GA G2de| dcBA GABG| A2AB A2GA| BABG EDEF| \
G2GA G2de| dcBA GABc|
dBGB cAFA| A2G2 G2:|\
|:Bc\
d2de d2ef| gfed (e2e)f|
edcB cBAG| FGAB A2AB|\
c2ec BcdB| cA (3BAG A2Bc| dBGB cAFA| A2G2 G2:|


